Numix-GalliumOS/24/mimetypes/text-x-python.svg

<?xml version="1.0" encoding="UTF-8" standalone="no"?>
<svg
   xmlns:dc="http://purl.org/dc/elements/1.1/"
   xmlns:cc="http://creativecommons.org/ns#"
   xmlns:rdf="http://www.w3.org/1999/02/22-rdf-syntax-ns#"
   xmlns:svg="http://www.w3.org/2000/svg"
   xmlns="http://www.w3.org/2000/svg"
   xmlns:sodipodi="http://sodipodi.sourceforge.net/DTD/sodipodi-0.dtd"
   xmlns:inkscape="http://www.inkscape.org/namespaces/inkscape"
   width="24"
   height="24"
   viewBox="0 0 24 24"
   id="svg2"
   version="1.1"
   inkscape:version="0.48.5 r10040"
   sodipodi:docname="text-x-python.svg">
  <metadata
     id="metadata20">
    <rdf:RDF>
      <cc:Work
         rdf:about="">
        <dc:format>image/svg+xml</dc:format>
        <dc:type
           rdf:resource="http://purl.org/dc/dcmitype/StillImage" />
      </cc:Work>
    </rdf:RDF>
  </metadata>
  <defs
     id="defs18" />
  <sodipodi:namedview
     pagecolor="#ffffff"
     bordercolor="#666666"
     borderopacity="1"
     objecttolerance="10"
     gridtolerance="10"
     guidetolerance="10"
     inkscape:pageopacity="0"
     inkscape:pageshadow="2"
     inkscape:window-width="1280"
     inkscape:window-height="970"
     id="namedview16"
     showgrid="true"
     inkscape:zoom="14.75"
     inkscape:cx="8.6055389"
     inkscape:cy="10.601562"
     inkscape:window-x="0"
     inkscape:window-y="0"
     inkscape:window-maximized="1"
     inkscape:current-layer="svg2">
    <inkscape:grid
       type="xygrid"
       id="grid2997"
       empspacing="5"
       visible="true"
       enabled="true"
       snapvisiblegridlinesonly="true" />
  </sodipodi:namedview>
  <path
     style="fill:#366994;fill-opacity:1"
     d="M 5,1 C 4.527343,1 4,1.527344 4,2 l 0,20 c 0,0.445312 0.554687,1 1,1 l 14,0 c 0.445313,0 0.992367,-0.554753 1,-1 L 20,7 14,1 z"
     id="path4"
     inkscape:connector-curvature="0"
     sodipodi:nodetypes="ssssssccs" />
  <path
     style="fill:#000000;fill-opacity:0.19599998"
     d="m 15,7 5,5 0,-5 z"
     id="path6"
     inkscape:connector-curvature="0"
     sodipodi:nodetypes="cccc" />
  <path
     style="fill:#ffffff;fill-opacity:0.39200003"
     d="m 14,1 6,6 -5,0 C 14.554688,7 14,6.445312 14,6 z"
     id="path8"
     inkscape:connector-curvature="0"
     sodipodi:nodetypes="ccssc" />
  <g
     style="fill:#ffffff"
     id="g10"
     transform="matrix(1.6368288,0,0,1.5416142,-1.0946321,0.5838583)">
    <path
       d="M 8.070312,5 C 7.800781,5 7.539062,5.023438 7.3125,5.0625 6.640625,5.179688 6.496094,5.214844 6.496094,5.667969 l 0,1 1.667968,0 0,0.332031 -2.332031,0 C 5.371094,7 5.070312,7.28125 4.945312,7.800781 c -0.144531,0.597657 -0.152343,0.972657 0,1.59375 0.113282,0.464844 0.425782,0.9375 0.886719,0.9375 l 0.332031,0 0,-1 c 0,-0.515625 0.464844,-1 1,-1 l 1.667969,0 C 9.273438,8.332031 9.5,8.105469 9.5,7.667969 L 9.5,6 C 9.5,5.574219 9.324219,5.132812 8.894531,5.0625 8.625,5.019531 8.34375,5 8.070312,5 z M 7.5,5.667969 C 7.683594,5.667969 7.832031,5.816406 7.832031,6 7.832031,6.183594 7.683594,6.332031 7.5,6.332031 7.3125,6.332031 7.164062,6.183594 7.164062,6 7.164062,5.816406 7.3125,5.667969 7.5,5.667969 z"
       id="path12"
       inkscape:connector-curvature="0" />
    <path
       d="m 7.929688,12 c 0.269531,0 0.53125,-0.02344 0.757812,-0.0625 0.671875,-0.117188 0.816406,-0.152344 0.816406,-0.605469 l 0,-1 -1.667968,0 0,-0.332031 2.332031,0 c 0.460937,0 0.761719,-0.28125 0.886719,-0.800781 0.144531,-0.597657 0.152343,-0.972657 0,-1.59375 -0.113282,-0.464844 -0.425782,-0.9375 -0.886719,-0.9375 l -0.332031,0 0,1 c 0,0.515625 -0.464844,1 -1,1 l -1.667969,0 C 6.726562,8.667969 6.5,8.894531 6.5,9.332031 L 6.5,11 c 0,0.425781 0.175781,0.867188 0.605469,0.9375 C 7.375,11.980469 7.65625,12 7.929688,12 z M 8.5,11.332031 c -0.183594,0 -0.332031,-0.148437 -0.332031,-0.332031 0,-0.183594 0.148437,-0.332031 0.332031,-0.332031 0.1875,0 0.335938,0.148437 0.335938,0.332031 0,0.183594 -0.148438,0.332031 -0.335938,0.332031 z"
       id="path14"
       inkscape:connector-curvature="0" />
  </g>
</svg>

<svg xmlns="http://www.w3.org/2000/svg" viewBox="0 0 24 24">
 <path d="m 5 1 c -0.473 0 -1 0.527 -1 1 l 0 20 c 0 0.445 0.555 1 1 1 l 14 0 c 0.445 0 0.992 -0.555 1 -1 l 0 -15 -6 -6 z" style="fill:#366994;fill-opacity:1"/>
 <path d="m 15 7 5 5 0 -5 z" style="fill:#000;fill-opacity:0.196"/>
 <path d="m 14 1 6 6 -5 0 c -0.445 0 -1 -0.555 -1 -1 z" style="fill:#fff;fill-opacity:0.392"/>
 <g transform="matrix(1.6368288,0,0,1.5416142,-1.0946321,0.5838583)" style="fill:#fff">
  <path d="m 8.07 5 c -0.27 0 -0.531 0.023 -0.758 0.063 -0.672 0.117 -0.816 0.152 -0.816 0.605 l 0 1 1.668 0 0 0.332 -2.332 0 c -0.461 0 -0.762 0.281 -0.887 0.801 c -0.145 0.598 -0.152 0.973 0 1.594 0.113 0.465 0.426 0.938 0.887 0.938 l 0.332 0 0 -1 c 0 -0.516 0.465 -1 1 -1 l 1.668 0 c 0.441 0 0.668 -0.227 0.668 -0.664 l 0 -1.668 c 0 -0.426 -0.176 -0.867 -0.605 -0.938 -0.27 -0.043 -0.551 -0.063 -0.824 -0.063 z m -0.57 0.668 c 0.184 0 0.332 0.148 0.332 0.332 0 0.184 -0.148 0.332 -0.332 0.332 -0.188 0 -0.336 -0.148 -0.336 -0.332 0 -0.184 0.148 -0.332 0.336 -0.332 z"/>
  <path d="m 7.93 12 c 0.27 0 0.531 -0.023 0.758 -0.063 0.672 -0.117 0.816 -0.152 0.816 -0.605 l 0 -1 -1.668 0 0 -0.332 2.332 0 c 0.461 0 0.762 -0.281 0.887 -0.801 0.145 -0.598 0.152 -0.973 0 -1.594 -0.113 -0.465 -0.426 -0.938 -0.887 -0.938 l -0.332 0 0 1 c 0 0.516 -0.465 1 -1 1 l -1.668 0 c -0.441 0 -0.668 0.227 -0.668 0.664 l 0 1.668 c 0 0.426 0.176 0.867 0.605 0.938 c 0.27 0.043 0.551 0.063 0.824 0.063 z m 0.57 -0.668 c -0.184 0 -0.332 -0.148 -0.332 -0.332 0 -0.184 0.148 -0.332 0.332 -0.332 0.188 0 0.336 0.148 0.336 0.332 0 0.184 -0.148 0.332 -0.336 0.332 z"/>
 </g>
</svg>
